!!!COM: Claude Debussy
!!!CNT: Francais
!!!TXO: Francais
!!!OTL: Fantoches
!!!OPR: Fe^tes Galantes
!!!ONM: No. 2
!!!LYR: Paul Verlaine
!!!ENC: Jacob Pegg
!!!YOR: Claude Debussy: Songs 1880-1904, Edited by Rita Benton
!!!YOR: New York: Dover publications, inc., 1981
!!!YOR: ISBN 0-486-24131-9
!!!ODT: 1891/
!!NB: Vocal melody and text only encoded.
!!NB: First instance of melodic material only encoded.
**kern	**silbe
*clef G2	*
*k[]	*
*M2/4	*
*MM[allegretto]	*
!! created: 7/2/03 1:14
!! last edited: 7/17/03 14:37
!! time (min) : input notes 14, words 7.  check : notes 6, words 5.
!! total edit time: about 35 min.
=6	=6
{8a-	{Sca-
8a-	-ra-
8ee-	-mou-
16ee-	-che
16ee-	et
=7	=7
16e-	Pul-
16e-	-ci-
8e-	-nel-
4a-}	-la,}
=8	=8
{8an	{Qu'un
8an	mau-
8b	-vais
8b	des-
=9	=9
8cc	-sein
16cc	ras-
16cc	-sem-
4dd}	-bla,}
=10	=10
{8ee	{Ges-
8ee	-ti-
8ff	-cu-
8ff	-lent
=11	=11
8ee	noirs
16ee	sous
16ee	la
8ff	lu-
8ff}	-ne,}
=12	=12
12r	.
{12ee	{la
12cc	la
12g	la
12g	la
12g	la
=13	=13
8a	la
16g	|
16f	|
[4e	|
=14	=14
12e]	|
12d	la
12e	la
12f	la
12e	la
12f	la
=15	=15
12g	la
12a	|
12g	|
12f	la
12g	|
12f	|
=16	=16
2e}	la}
!! piano only 5 meas.
=22	=22
8r	.
{4ee	{Ce-
(8e-	-pen-
=23	=23
8d)	-dant
16c#	l'ex-
16c#	-cel-
8dd	-lent
8dd#	doc-
=24	=24
8ee}	-teur}
{16ff	{Bo-
16dd	-lo-
[4ff	-nais
=25	=25
4ff]	|
4dd	|
=26	=26
8b-	cueille
8b-	a-
8cc	-vec
8ff	len-
=27	=27
4dd}	-teur}
{4cc	{Des
=28	=28
4b-	sim-
8b-}	-ples}
8r	.
=29	=29
8r	.
{16a	{par-
16a	|
12a	-mi
12b-	l'her-
12cc	-be
=30	=30
4.dd	bru-
8cc#	|
=31	=31
8ccn	|
8b	|
8ccn	|
8cc#	|
=32	=32
[2dd	-ne.
=33	=33
4dd]}	|}
4r	.
=34	=34
4r	.
{8g	{Lors
8a	sa
=35	=35
(4cc	fil-
4a)}	-le,}
=36	=36
8r	.
{8b-	{pi-
8dd	-quant
8b-	mi-
=37	=37
4g}	-nois,}
{4g	{Sous
=38	=38
(12aa	la
12gg	|
12ee)	char-
[4dd	-mil-
=39	=39
4dd]	|
4cc}	-le,}
=40	=40
8r	.
{(16b-	{en
16dd	|
8b-)	ta-
(16a	-pi-
16b-	|
=41	=41
4g)}	-nois,}
4r	.
!!42-46 like 12-16
=47	=47
4r	.
{4e	{en
=48	=48
2a	que^-
=49	=49
8b	|
8g#}	-te}
{(12f#	{De
12g#	|
12e)	|
=50	=50
(12f#	son
12g#	|
12a	|
12cc	beau
12b	|
12a	pi-
=51	=51
12b)	-rate
12g#	es-
12f#	-pa-
4g#}	-gnol,}
=52	=52
4r	.
{4a	{Dont
=53	=53
(4b	un
8cc#	a-
8ee	-mou-
=54	=54
4b	-reux
8a	ros-
8e	-si-
=55	=55
4.b	-gnol
8a)}	|}
=56	=56
{4ee	{Cla-
8ee	-me
8ee-	la
=57	=57
8dd	de/-
8cc#	-tres-
8dd	-se a\
8dd#	tue~
=58	=58
(2ee	~te^-
=59	=59
2aa	|
=60	=60
8a)}	-te.}
8r	.
4r	.
!! piano only 5 meas.	
=66	=66
8r	.
{(16g	{la
16b	|
[4g)	la
=67	=67
2g]}	|}
=68	=68
8r	.
{(16e	{la
16g	|
[4e)	|
=69	=69
2e_	|
=70	=70
8e]}	|}
8r	.
4r	.
*-	*-
